apps/16/virt-manager.svg

<?xml version="1.0" encoding="UTF-8" standalone="no"?>
<!-- Created with Inkscape (http://www.inkscape.org/) -->

<svg
   width="16"
   height="16"
   version="1.1"
   viewBox="0 0 16 16"
   id="svg22"
   sodipodi:docname="virt-manager.svg"
   inkscape:version="1.1.2 (0a00cf5339, 2022-02-04)"
   xmlns:inkscape="http://www.inkscape.org/namespaces/inkscape"
   xmlns:sodipodi="http://sodipodi.sourceforge.net/DTD/sodipodi-0.dtd"
   xmlns:xlink="http://www.w3.org/1999/xlink"
   xmlns="http://www.w3.org/2000/svg"
   xmlns:svg="http://www.w3.org/2000/svg">
  <sodipodi:namedview
     id="namedview24"
     pagecolor="#ffffff"
     bordercolor="#666666"
     borderopacity="1.0"
     inkscape:showpageshadow="2"
     inkscape:pageopacity="0.0"
     inkscape:pagecheckerboard="0"
     inkscape:deskcolor="#d1d1d1"
     showgrid="false"
     inkscape:zoom="44.48"
     inkscape:cx="13.534173"
     inkscape:cy="10.802608"
     inkscape:window-width="3440"
     inkscape:window-height="1359"
     inkscape:window-x="0"
     inkscape:window-y="0"
     inkscape:window-maximized="1"
     inkscape:current-layer="svg22"
     inkscape:pageshadow="2" />
  <defs
     id="defs12">
    <linearGradient
       id="linearGradient1005-3-3"
       x1="5.2535"
       x2="9.3823996"
       y1="15.383"
       y2="2.9421"
       gradientTransform="matrix(0.99999,0,0,0.99999,1.632,-0.61743)"
       gradientUnits="userSpaceOnUse">
      <stop
         stop-color="#fa8200"
         offset="0"
         id="stop2" />
      <stop
         stop-color="#ff9600"
         offset=".36953"
         id="stop4" />
      <stop
         stop-color="#ffb400"
         offset="1"
         id="stop6" />
    </linearGradient>
    <filter
       id="filter4014"
       x="-0.062499933"
       y="-0.057692993"
       width="1.1249999"
       height="1.115386"
       color-interpolation-filters="sRGB">
      <feGaussianBlur
         stdDeviation="1.093751"
         id="feGaussianBlur9" />
    </filter>
    <linearGradient
       inkscape:collect="always"
       xlink:href="#linearGradient3487"
       id="linearGradient3403"
       gradientUnits="userSpaceOnUse"
       x1="6.9491749"
       y1="4.5549412"
       x2="11.215498"
       y2="59.052471" />
    <linearGradient
       id="linearGradient3487">
      <stop
         style="stop-color:#32373c;stop-opacity:1"
         offset="0"
         id="stop3481" />
      <stop
         id="stop3483"
         offset="0.36804965"
         style="stop-color:#1a1a1a;stop-opacity:1" />
      <stop
         style="stop-color:#31363b;stop-opacity:1"
         offset="1"
         id="stop3485" />
    </linearGradient>
    <linearGradient
       inkscape:collect="always"
       xlink:href="#linearGradient20604"
       id="linearGradient20558"
       gradientUnits="userSpaceOnUse"
       x1="25.802212"
       y1="20.373846"
       x2="25.111048"
       y2="58.912758" />
    <linearGradient
       id="linearGradient20604">
      <stop
         id="stop20598"
         offset="0"
         style="stop-color:#3d3d3d;stop-opacity:1" />
      <stop
         style="stop-color:#000000;stop-opacity:1"
         offset="0.61772454"
         id="stop20600" />
      <stop
         id="stop20602"
         offset="1"
         style="stop-color:#3d3d3d;stop-opacity:1" />
    </linearGradient>
    <filter
       inkscape:collect="always"
       style="color-interpolation-filters:sRGB"
       id="filter20720"
       x="-0.017024755"
       y="-0.016457183"
       width="1.0340491"
       height="1.0329144">
      <feGaussianBlur
         inkscape:collect="always"
         stdDeviation="0.14745661"
         id="feGaussianBlur20722" />
    </filter>
    <linearGradient
       gradientTransform="translate(0.36067797,-0.13016949)"
       xlink:href="#linearGradient4555"
       id="linearGradient4557"
       x1="43.499737"
       y1="64.011795"
       x2="44.141731"
       y2="0.30621234"
       gradientUnits="userSpaceOnUse" />
    <linearGradient
       id="linearGradient4555">
      <stop
         style="stop-color:#141618;stop-opacity:1"
         offset="0"
         id="stop4551" />
      <stop
         id="stop4559"
         offset="0.51820582"
         style="stop-color:#686868;stop-opacity:1" />
      <stop
         style="stop-color:#31363b;stop-opacity:1"
         offset="1"
         id="stop4553" />
    </linearGradient>
    <filter
       style="color-interpolation-filters:sRGB"
       id="filter4601"
       x="-0.030244955"
       width="1.0604899"
       y="-0.030100647"
       height="1.0602013">
      <feGaussianBlur
         stdDeviation="0.014790289"
         id="feGaussianBlur4603" />
    </filter>
    <linearGradient
       id="g"
       gradientUnits="userSpaceOnUse"
       x1="24"
       x2="24"
       y1="44"
       y2="4"
       gradientTransform="translate(-5.9332704,-14.318425)">
      <stop
         offset="0"
         stop-color="#bdc3c7"
         id="stop32" />
      <stop
         offset="1"
         stop-color="#eff0f1"
         id="stop34" />
    </linearGradient>
    <linearGradient
       id="h"
       gradientUnits="userSpaceOnUse"
       x1="17"
       x2="38.140625"
       xlink:href="#a"
       y1="17"
       y2="38.140625" />
    <linearGradient
       id="a">
      <stop
         offset="0"
         stop-color="#292c2f"
         id="stop2-8" />
      <stop
         offset="1"
         stop-opacity="0"
         id="stop4-6" />
    </linearGradient>
    <linearGradient
       id="b"
       gradientTransform="matrix(2.8571429,0,0,2.7999946,-1209.9184,-1455.2316)"
       gradientUnits="userSpaceOnUse"
       x1="428.37143"
       x2="428.37143"
       y1="530.79797"
       y2="525.79797">
      <stop
         offset="0"
         stop-color="#da4453"
         id="stop7" />
      <stop
         offset="1"
         stop-color="#fa4e5f"
         id="stop9" />
    </linearGradient>
    <linearGradient
       id="e"
       gradientUnits="userSpaceOnUse"
       x1="28.999968"
       x2="28.999968"
       y1="17.000038"
       y2="31.000038">
      <stop
         offset="0"
         stop-color="#31363b"
         id="stop22" />
      <stop
         offset="1"
         stop-color="#4d4d4d"
         id="stop24" />
    </linearGradient>
    <linearGradient
       id="f"
       gradientUnits="userSpaceOnUse"
       x1="25.999968"
       x2="25.999968"
       y1="17.000038"
       y2="31.000038">
      <stop
         offset="0"
         stop-color="#7f8c8d"
         id="stop27" />
      <stop
         offset="1"
         stop-color="#afb0b3"
         id="stop29" />
    </linearGradient>
    <linearGradient
       id="i"
       gradientUnits="userSpaceOnUse"
       x1="25"
       x2="41.563583"
       xlink:href="#a"
       y1="17"
       y2="33.563583" />
    <linearGradient
       id="d"
       gradientUnits="userSpaceOnUse"
       x1="31.999968"
       x2="31.999968"
       y1="31.000038"
       y2="17.000038">
      <stop
         offset="0"
         stop-color="#afb0b3"
         id="stop17" />
      <stop
         offset="1"
         stop-color="#bdc3c7"
         id="stop19" />
    </linearGradient>
    <linearGradient
       id="c"
       gradientUnits="userSpaceOnUse"
       x1="33.999966"
       x2="33.999966"
       y1="31.000038"
       y2="17.000038">
      <stop
         offset="0"
         stop-color="#4d4d4d"
         id="stop12" />
      <stop
         offset="1"
         stop-color="#585858"
         id="stop14" />
    </linearGradient>
  </defs>
  <rect
     style="display:inline;fill:#e7e9ea;fill-opacity:1;fill-rule:evenodd;stroke:none;stroke-width:0.298282;stroke-linejoin:round;stroke-miterlimit:7.8"
     id="rect1192"
     width="13.52965"
     height="13.731385"
     x="1.530651"
     y="1.3996731"
     ry="0"
     inkscape:label="arriere" />
  <g
     id="g887"
     transform="matrix(0.32148694,0,0,0.32148694,-21.07545,0.66667798)">
    <g
       id="g277683"
       transform="translate(70.400776,-0.84119289)">
      <path
         d="m 10,17 2,14 12.964844,12.964844 A 20,20 0 0 0 43.953125,24.953125 L 36,17 32,23 26,17 16,23 Z"
         fill="url(#h)"
         opacity="0.2"
         id="path41"
         style="fill:url(#h)" />
      <path
         d="m 7,17 h 3 L 13.500001,27 17,17 h 3 l -5,14 -3.00001,-6.6e-5 z"
         fill="url(#b)"
         id="path43"
         style="fill:url(#b)" />
      <path
         d="m 18,31 5,-14 h 3 l -5,14 z m 10,0 5,-14 h 3 l -5,14 z"
         fill="url(#e)"
         id="path45"
         style="fill:url(#e)" />
      <path
         d="m 15,31 5,-14 h 3 l -5,14 z m 10,0 5,-14 h 3 l -5,14 z"
         fill="url(#f)"
         id="path47"
         style="fill:url(#f)" />
      <path
         d="m 26,17 -1,14 9.820312,9.820312 A 20,20 0 0 0 43.953125,24.953125 L 36,17 33,24 Z"
         fill="url(#i)"
         opacity="0.2"
         id="path49"
         style="fill:url(#i)" />
      <path
         d="M 28,31 H 25 L 20,17 h 3 z m 10,0 H 35 L 30,17 h 3 z"
         fill="url(#d)"
         id="path51"
         style="fill:url(#d)" />
      <path
         d="m 23,17 5,14 h 3 L 26,17 Z m 10,0 5,14 h 3 L 36,17 Z"
         fill="url(#c)"
         id="path53"
         style="fill:url(#c)" />
    </g>
  </g>
  <path
     style="display:inline;mix-blend-mode:normal;fill:url(#linearGradient3403);fill-opacity:1;stroke:url(#linearGradient20558);stroke-width:1.16242;stroke-linecap:butt;stroke-linejoin:round;stroke-miterlimit:4;stroke-dasharray:none;stroke-opacity:1;filter:url(#filter20720)"
     d="M 4.7043071,3.9814882 4.6913695,60.80196 H 58.59546 l 1.022155,-2.866369 c 0,0 -23.87537,0.766388 -32.844441,-4.140386 C 16.257548,48.042344 11.401114,4.0978197 11.401114,4.0978197 Z"
     id="path1686"
     sodipodi:nodetypes="ccccscc"
     transform="matrix(0.24171951,0,0,0.24171951,0.5458703,0.43726863)"
     inkscape:label="folder" />
  <rect
     style="display:inline;fill:none;fill-opacity:1;stroke:url(#linearGradient4557);stroke-width:3.71366;stroke-linejoin:round;stroke-miterlimit:7.8;stroke-dasharray:none;stroke-opacity:0.995146;filter:url(#filter4601)"
     id="rect4539"
     width="62.566689"
     height="62.866646"
     x="1.0323594"
     y="0.59551275"
     ry="6.2447233"
     rx="5.8029528"
     transform="matrix(0.22643866,0,0,0.22597713,0.95199834,0.92571018)"
     inkscape:label="contour" />
</svg>

<svg width="16" height="16" version="1.1" viewBox="0 0 16 16" xmlns="http://www.w3.org/2000/svg" xmlns:xlink="http://www.w3.org/1999/xlink">
<defs>
<linearGradient id="linearGradient3403" x1="6.9492" x2="11.215" y1="4.5549" y2="59.052" gradientUnits="userSpaceOnUse">
<stop style="stop-color:#32373c" offset="0"/>
<stop style="stop-color:#1a1a1a" offset=".36805"/>
<stop style="stop-color:#31363b" offset="1"/>
</linearGradient>
<linearGradient id="linearGradient20558" x1="25.802" x2="25.111" y1="20.374" y2="58.913" gradientUnits="userSpaceOnUse">
<stop style="stop-color:#3d3d3d" offset="0"/>
<stop offset=".61772"/>
<stop style="stop-color:#3d3d3d" offset="1"/>
</linearGradient>
<linearGradient id="linearGradient4557" x1="43.5" x2="44.142" y1="64.012" y2=".30621" gradientTransform="translate(.36068 -.13017)" gradientUnits="userSpaceOnUse">
<stop style="stop-color:#141618" offset="0"/>
<stop style="stop-color:#686868" offset=".51821"/>
<stop style="stop-color:#31363b" offset="1"/>
</linearGradient>
<linearGradient id="h" x1="17" x2="38.141" y1="17" y2="38.141" gradientUnits="userSpaceOnUse" xlink:href="#a"/>
<linearGradient id="a">
<stop stop-color="#292c2f" offset="0"/>
<stop stop-opacity="0" offset="1"/>
</linearGradient>
<linearGradient id="b" x1="428.37" x2="428.37" y1="530.8" y2="525.8" gradientTransform="matrix(2.8571 0 0 2.8 -1209.9 -1455.2)" gradientUnits="userSpaceOnUse">
<stop stop-color="#da4453" offset="0"/>
<stop stop-color="#fa4e5f" offset="1"/>
</linearGradient>
<linearGradient id="e" x1="29" x2="29" y1="17" y2="31" gradientUnits="userSpaceOnUse">
<stop stop-color="#31363b" offset="0"/>
<stop stop-color="#4d4d4d" offset="1"/>
</linearGradient>
<linearGradient id="f" x1="26" x2="26" y1="17" y2="31" gradientUnits="userSpaceOnUse">
<stop stop-color="#7f8c8d" offset="0"/>
<stop stop-color="#afb0b3" offset="1"/>
</linearGradient>
<linearGradient id="i" x1="25" x2="41.564" y1="17" y2="33.564" gradientUnits="userSpaceOnUse" xlink:href="#a"/>
<linearGradient id="d" x1="32" x2="32" y1="31" y2="17" gradientUnits="userSpaceOnUse">
<stop stop-color="#afb0b3" offset="0"/>
<stop stop-color="#bdc3c7" offset="1"/>
</linearGradient>
<linearGradient id="c" x1="34" x2="34" y1="31" y2="17" gradientUnits="userSpaceOnUse">
<stop stop-color="#4d4d4d" offset="0"/>
<stop stop-color="#585858" offset="1"/>
</linearGradient>
</defs>
<rect x="1.5307" y="1.3997" width="13.53" height="13.731" ry="0" style="fill-rule:evenodd;fill:#e7e9ea"/>
<g transform="matrix(.32149 0 0 .32149 -21.075 .66668)">
<g transform="translate(70.401 -.84119)">
<path d="m10 17 2 14 12.965 12.965a20 20 0 0 0 18.988-19.012l-7.9531-7.9531-4 6-6-6-10 6z" fill="url(#h)" opacity=".2" style="fill:url(#h)"/>
<path d="m7 17h3l3.5 10 3.5-10h3l-5 14-3-6.6e-5z" fill="url(#b)" style="fill:url(#b)"/>
<path d="m18 31 5-14h3l-5 14zm10 0 5-14h3l-5 14z" fill="url(#e)" style="fill:url(#e)"/>
<path d="m15 31 5-14h3l-5 14zm10 0 5-14h3l-5 14z" fill="url(#f)" style="fill:url(#f)"/>
<path d="m26 17-1 14 9.8203 9.8203a20 20 0 0 0 9.1328-15.867l-7.9531-7.9531-3 7z" fill="url(#i)" opacity=".2" style="fill:url(#i)"/>
<path d="m28 31h-3l-5-14h3zm10 0h-3l-5-14h3z" fill="url(#d)" style="fill:url(#d)"/>
<path d="m23 17 5 14h3l-5-14zm10 0 5 14h3l-5-14z" fill="url(#c)" style="fill:url(#c)"/>
</g>
</g>
<path transform="matrix(.24172 0 0 .24172 .54587 .43727)" d="m4.7043 3.9815-0.012938 56.82h53.904l1.0222-2.8664s-23.875 0.76639-32.844-4.1404c-10.516-5.7529-15.372-49.697-15.372-49.697z" style="fill:url(#linearGradient3403);mix-blend-mode:normal;stroke-linejoin:round;stroke-width:1.1624;stroke:url(#linearGradient20558)"/>
<rect transform="matrix(.22644 0 0 .22598 .952 .92571)" x="1.0324" y=".59551" width="62.567" height="62.867" rx="5.803" ry="6.2447" style="fill:none;stroke-linejoin:round;stroke-miterlimit:7.8;stroke-opacity:.99515;stroke-width:3.7137;stroke:url(#linearGradient4557)"/>
</svg>
